school/img/country/AZ.svg

<svg width="13" height="12" viewBox="0 0 13 12" fill="none" xmlns="http://www.w3.org/2000/svg">
<rect width="13" height="12" rx="2" fill="white"/>
<mask id="mask0" mask-type="alpha" maskUnits="userSpaceOnUse" x="0" y="0" width="13" height="12">
<rect width="13" height="12" rx="2" fill="white"/>
</mask>
<g mask="url(#mask0)">
<path fill-rule="evenodd" clip-rule="evenodd" d="M0 4H13V0H0V4Z" fill="#24AAD5"/>
<path fill-rule="evenodd" clip-rule="evenodd" d="M0 12H13V8H0V12Z" fill="#21BF75"/>
<path fill-rule="evenodd" clip-rule="evenodd" d="M0 8H13V4H0V8Z" fill="#ED1845"/>
<g filter="url(#filter0_d)">
<path fill-rule="evenodd" clip-rule="evenodd" d="M6.49998 7.19999C6.69093 7.19999 6.86842 7.12551 7.01599 6.9978C6.99889 6.99925 6.98164 7 6.96425 7C6.53688 7 6.19044 6.55228 6.19044 6C6.19044 5.44771 6.53688 5 6.96425 5C6.98164 5 6.9989 5.00074 7.01601 5.0022C6.86843 4.87448 6.69094 4.79999 6.49998 4.79999C5.98715 4.79999 5.57141 5.33725 5.57141 5.99999C5.57141 6.66273 5.98715 7.19999 6.49998 7.19999ZM7.42858 6C7.42858 6.22091 7.29 6.4 7.11905 6.4C6.94811 6.4 6.80953 6.22091 6.80953 6C6.80953 5.77908 6.94811 5.6 7.11905 5.6C7.29 5.6 7.42858 5.77908 7.42858 6Z" fill="white"/>
</g>
</g>
<defs>
<filter id="filter0_d" x="5.57141" y="4.79999" width="1.85716" height="3.4" filterUnits="userSpaceOnUse" color-interpolation-filters="sRGB">
<feFlood flood-opacity="0" result="BackgroundImageFix"/>
<feColorMatrix in="SourceAlpha" type="matrix" values="0 0 0 0 0 0 0 0 0 0 0 0 0 0 0 0 0 0 127 0"/>
<feOffset dy="1"/>
<feColorMatrix type="matrix" values="0 0 0 0 0 0 0 0 0 0 0 0 0 0 0 0 0 0 0.06 0"/>
<feBlend mode="normal" in2="BackgroundImageFix" result="effect1_dropShadow"/>
<feBlend mode="normal" in="SourceGraphic" in2="effect1_dropShadow" result="shape"/>
</filter>
</defs>
</svg>

<svg width="13" height="12" fill="none" xmlns="http://www.w3.org/2000/svg"><rect width="13" height="12" rx="2" fill="#fff"/><mask id="a" maskUnits="userSpaceOnUse" x="0" y="0" width="13" height="12"><rect width="13" height="12" rx="2" fill="#fff"/></mask><g mask="url(#a)"><path fill-rule="evenodd" clip-rule="evenodd" d="M0 4h13V0H0v4z" fill="#24AAD5"/><path fill-rule="evenodd" clip-rule="evenodd" d="M0 12h13V8H0v4z" fill="#21BF75"/><path fill-rule="evenodd" clip-rule="evenodd" d="M0 8h13V4H0v4z" fill="#ED1845"/><g filter="url(#filter0_d)"><path fill-rule="evenodd" clip-rule="evenodd" d="M6.5 7.2c.19 0 .368-.074.516-.202A.612.612 0 016.964 7c-.427 0-.774-.448-.774-1s.347-1 .774-1c.018 0 .035 0 .052.002A.785.785 0 006.5 4.8c-.513 0-.929.537-.929 1.2 0 .663.416 1.2.929 1.2zM7.429 6c0 .22-.139.4-.31.4-.17 0-.31-.18-.31-.4 0-.22.14-.4.31-.4.171 0 .31.18.31.4z" fill="#fff"/></g></g><defs><filter id="filter0_d" x="5.571" y="4.8" width="1.857" height="3.4" filterUnits="userSpaceOnUse" color-interpolation-filters="sRGB"><feFlood flood-opacity="0" result="BackgroundImageFix"/><feColorMatrix in="SourceAlpha" values="0 0 0 0 0 0 0 0 0 0 0 0 0 0 0 0 0 0 127 0"/><feOffset dy="1"/><feColorMatrix values="0 0 0 0 0 0 0 0 0 0 0 0 0 0 0 0 0 0 0.06 0"/><feBlend in2="BackgroundImageFix" result="effect1_dropShadow"/><feBlend in="SourceGraphic" in2="effect1_dropShadow" result="shape"/></filter></defs></svg>
